ui/StatusQ/src/assets/img/icons/communities/delete.svg

<svg fill="none" height="24" viewBox="0 0 24 24" width="24" xmlns="http://www.w3.org/2000/svg"><path clip-rule="evenodd" d="m9.39286 2.25c-1.18347 0-2.14286.95939-2.14286 2.14286 0 .61145-.49568 1.10714-1.10714 1.10714h-3.14286c-.41421 0-.75.33579-.75.75s.33579.75.75.75h.73876c.25288 0 .46594.1888.49637.43983l1.33836 11.04147c.24343 2.0083 1.94796 3.5187 3.97094 3.5187h4.91117c2.023 0 3.7275-1.5104 3.9709-3.5187l1.3384-11.04147c.0304-.25103.2435-.43983.4963-.43983h.7388c.4142 0 .75-.33579.75-.75s-.3358-.75-.75-.75h-3.1429c-.6114 0-1.1071-.49568-1.1071-1.10714 0-1.18347-.9594-2.14286-2.1429-2.14286zm5.31594 3.25c.3663 0 .6146-.38913.5652-.75214-.0158-.11608-.024-.23459-.024-.355 0-.35504-.2878-.64286-.6429-.64286h-5.21424c-.35504 0-.64286.28782-.64286.64286 0 .12041-.00816.23892-.02397.355-.04942.36301.19882.75214.56518.75214zm3.1483 1.5c.2393 0 .4247.20925.3959.44679l-1.3156 10.85401c-.1521 1.2552-1.2175 2.1992-2.4818 2.1992h-4.91117c-1.26436 0-2.32969-.944-2.48184-2.1992l-1.31564-10.85401c-.02879-.23754.15663-.44679.39591-.44679z" fill="#ff2d55" fill-rule="evenodd"/></svg>

<svg width="24" height="24" viewBox="0 0 24 24" fill="none" xmlns="http://www.w3.org/2000/svg">
<path fill-rule="evenodd" clip-rule="evenodd" d="M9.39286 2.25C8.20939 2.25 7.25 3.20939 7.25 4.39286C7.25 5.00431 6.75432 5.5 6.14286 5.5H3C2.58579 5.5 2.25 5.83579 2.25 6.25C2.25 6.66421 2.58579 7 3 7H3.73876C3.99164 7 4.2047 7.1888 4.23513 7.43983L5.57349 18.4813C5.81692 20.4896 7.52145 22 9.54443 22H14.4556C16.4786 22 18.1831 20.4896 18.4265 18.4813L19.7649 7.43983C19.7953 7.1888 20.0084 7 20.2612 7H21C21.4142 7 21.75 6.66421 21.75 6.25C21.75 5.83579 21.4142 5.5 21 5.5H17.8571C17.2457 5.5 16.75 5.00432 16.75 4.39286C16.75 3.20939 15.7906 2.25 14.6071 2.25L9.39286 2.25ZM14.7088 5.5C15.0751 5.5 15.3234 5.11087 15.274 4.74786C15.2582 4.63178 15.25 4.51327 15.25 4.39286C15.25 4.03782 14.9622 3.75 14.6071 3.75L9.39286 3.75C9.03782 3.75 8.75 4.03782 8.75 4.39286C8.75 4.51327 8.74184 4.63178 8.72603 4.74786C8.67661 5.11087 8.92485 5.5 9.29121 5.5L14.7088 5.5ZM17.8571 7C18.0964 7 18.2818 7.20925 18.253 7.44679L16.9374 18.3008C16.7853 19.556 15.7199 20.5 14.4556 20.5H9.54443C8.28007 20.5 7.21474 19.556 7.06259 18.3008L5.74695 7.44679C5.71816 7.20925 5.90358 7 6.14286 7L17.8571 7Z" fill="#FF2D55"/>
</svg>
